!!!!SEGMENT: pl-wnifc--13846--001-121_anonim--piesni-polskie-i-ruskie-ludu-galicyjskiego-121-oj-czyz-bo-ja.krn
!!!kernsource:
!!!cenid: 18xx:3343
!!!COM: Anonim
!!!COM-rismID: pe30004985
!!!CDT:
!!!CNT:
!!!GTL: Pieśni polskie i ruskie ludu galicyjskiego
!!!OTL: 121. Oj czyż bo ja
!!!OMV: 121
!!!PDT: 1833
!!!AGN:
!!!SMS-siglum: PL-Wnifc
!!!SMS-shelfmark: 13846
!!!SMS-shelfwork: 001-121 G
!!!NIFC-rismSourceID: 1001036701
!!!NIFC-rismChildID: 1001039625
!!!NIFC-islandoraID: nifc:210326
!!!URL-pdf-islandora: https://repozytorium.nifc.pl/islandora/object/nifc%3A210326/datastream/PDF/view
!!!URL-scan:
!!!IIIF:
!!!ONB-nifc:
!!!OMD: Adagio
!!!AIN: 1 piano 1 vox
!!!key: G
**kern	**kern	**dynam	**kern	**text
*part2	*part2	*part2	*part1	*part1
*staff3	*staff2	*	*staff1	*staff1
*I"FORTEPIAN.	*I"FORTEPIAN.	*	*I"GŁOS.	*
*Ipiano	*Ipiano	*	*Ivox	*
*ICklav	*ICklav	*	*ICvox	*
*IGacmp	*IGacmp	*	*IGsolo	*
*clefF4	*clefG2	*	*clefG2	*
*k[f#]	*k[f#]	*	*k[f#]	*
*G:	*G:	*	*G:	*
*M6/8	*M6/8	*	*M6/8	*
=1	=1	=1	=1	=1
*^	*	*	*	*
!	!	!LO:TX:a:t=E. 103.:rj	!	!	!
(<8GG/L	4.GG\	(>16ee\LL 16cc\	.	(>16ee\LL	Oj
.	.	16dd\JJ 16b\)	.	16dd\JJ)	.
8D/	.	(>8.dd\L 8.b\	.	(>8.dd\L	czyż
8F#/J)	.	.	.	.	.
.	.	16cc\Jk 16a\)	.	16cc\Jk)	.
8G/ 8GG/	8GG\	(>16cc\LL 16a\	.	(>16cc\LL	bo
.	.	16b\JJ 16g\)	.	16b\JJ)	.
16r	4ryy	4b\ 4g\	.	4b\	ja,
16G/|LL	.	.	.	.	.
16D/|	.	.	.	.	.
16BB/|JJ	.	.	.	.	.
=2	=2	=2	=2	=2	=2
(<8GG/L	4.GG\	(>16ee\LL 16cc\	.	(>16ee\LL	oj
.	.	16dd\JJ 16b\)	.	16dd\JJ)	.
8D/	.	(>8.dd\L 8.b\	.	(>8.dd\L	czyż
8F#/J)	.	.	.	.	.
.	.	16cc\Jk 16a\)	.	16cc\Jk)	.
8G/ 8GG/	8GG\	(>16cc\LL 16a\	.	(>16cc\LL	bo
.	.	16b\JJ 16g\)	.	16b\JJ)	.
16r	4ryy	4b\ 4g\	.	4b\	ja
16D/|LL	.	.	.	.	.
16BB/|	.	.	.	.	.
16GG/|JJ	.	.	.	.	.
*v	*v	*	*	*	*
!!LO:LB:g=original
=3	=3	=3	=3	=3
!LO:TX:t=P:problem=mixed beam	!	!	!	!
8DD/L	8b/ 8g/|	.	8b\	na
8D\	(<8.b/L 8.g/	.	(>8.b\	swi-
8D\J	.	.	.	.
.	16dd/Jk 16b/)	.	16dd\)	.
!LO:TX:t=P:problem=mixed beam	!	!	!	!
8DD/L	(>8.cc\L 8.a\	.	(<8.cc/L	-ti
8D\	.	.	.	.
.	16a\Jk 16f#\)	.	16a/Jk)	.
8D\J	8a\ 8f#\	.	8a/	je-
=4	=4	=4	=4	=4
!	!	!LO:S:s=2:note:problem=note-level slur	!	!
[>4.D/ [<4.GG/	(>4cc\ (>4a\	.	(>4cc\	-dna-
.	8b\) 8g\)	.	8b\)	.
8D/]L 8GG/|]	4b\ 4g\	.	4b\	-ja,
8BB/|	.	.	.	.
8GG/|J	8r	.	8r	.
!!LO:LB:g=original
=5	=5	=5	=5	=5
!LO:TX:t=P:problem=mixed beam	!	!	!	!
16DD/LL	8cc\ 8a\	.	8cc\	za
16D\	.	.	.	.
16D\	(>8.cc\L 8.a\	.	(>8.cc\L	szczoż
16D\	.	.	.	.
16D\	.	.	.	.
16D\JJ	16b\Jk 16g\)	.	16b\Jk)	.
!LO:TX:t=P:problem=mixed beam	!	!	!	!
16DD/LL	(<16b/LL 16g/	.	(<16b\LL	bo
16D\	16a/JJ 16f#/)	.	16a/JJ)	.
16D\	4a/ 4f#/	.	4a/	ja,
16D\	.	.	.	.
16D\	.	.	.	.
16D\JJ	.	.	.	.
=6	=6	=6	=6	=6
!LO:TX:t=P:problem=mixed beam	!	!	!	!
16DD/LL	(>16ee\LL 16cc\	.	(>16ee\LL	za
16D\	16dd\JJ 16b\)	.	16dd\JJ)	.
16D\	(>8.dd\L 8.b\	.	(>8.dd\L	szczoż
16D\	.	.	.	.
16D\	.	.	.	.
16D\JJ	16cc\Jk 16a\)	.	16cc\Jk)	.
!LO:TX:t=P:problem=mixed beam	!	!	!	!
16GG/LL	(>16cc\LL 16a\	.	(>16cc\LL	bo
16G\JJ	16b\JJ 16g\	.	16b\JJ)	.
16GG/LL	4b\ 4g\)	.	4b\	ja
16GG/	.	.	.	.
16BB/	.	.	.	.
16D\JJ	.	.	.	.
!!LO:LB:g=original
=7	=7	=7	=7	=7
8G/ 8GG/	8b\ 8g\	.	8b\	ta-
!	!	!LO:DY:b=2:rj	!	!
4G/ 4GG/	(>8.b\L 8.g\	sf	(>8.b\L	-ka
.	16dd\Jk 16b\)	.	16dd\Jk)	.
8D/L 8DD/	8.cc\L 8.a\	.	(>8.cc\L	ne-
8D/	.	.	.	.
.	16a\Jk 16f#\	.	16a\Jk)	.
8D/J	8a/ 8f#/	.	8a/	-szcza-
=8	=8	=8	=8	=8
[<4.D/ [<4.GG/	(>4a/ [>4d/ (<4c/	.	(<4a/	-sna-
.	8g/) 8d/] 8B/)	.	8g/)	.
4.D/] 4.GG/]	4g/ 4d/ 4B/	.	4g/	-ja.
.	8r	.	8r	.
==	==	==	==	==
*-	*-	*-	*-	*-
!!!system-decoration: <s1>{(s2,s3)}
!!!RDF**kern: > = above
!!!RDF**kern: < = below
!!!RDF**kern: | = vertical stroke
!!!ENC: Andrzej Kubiczek
!!!END: 2021-11-11
!!!YEC: Copyright 2022 Narodowy Instytut Fryderyka Chopina (https://polishscores.org)
!!!YEM: License CC-BY-4.0 (https://creativecommons.org/licenses/by/4.0)
